svg/emoji_u1f6f6.svg

<?xml version="1.0" encoding="UTF-8"?>
<svg width="128" height="128" enable-background="new 0 0 128 128" xmlns="http://www.w3.org/2000/svg" xmlns:xlink="http://www.w3.org/1999/xlink"><path d="m76.1 76.14c-25.35 25.35-53.69 40.68-67.02 47.06-3.24 1.55-5.81-1.02-4.26-4.26 6.38-13.33 21.71-41.67 47.06-67.02s53.69-40.68 67.02-47.06c3.24-1.55 5.81 1.02 4.26 4.26-6.37 13.34-21.71 41.67-47.06 67.02z" fill="#FFA726"/><radialGradient id="c" cx="64.242" cy="63.792" r="66.508" gradientTransform="matrix(.729 -.6846 .1644 .1751 6.9247 96.602)" gradientUnits="userSpaceOnUse"><stop stop-color="#8D6E63" offset=".00087691"/><stop stop-color="#6D4C41" offset="1"/></radialGradient><path d="m72.09 71.65c-22.76 22.76-47.16 36.95-55.76 41.59-1.13 0.61-2.15-0.41-1.54-1.54 4.64-8.6 18.83-32.99 41.59-55.76s47.16-36.95 55.76-41.59c1.13-0.61 2.15 0.41 1.54 1.54-4.64 8.6-18.82 32.99-41.59 55.76z" fill="url(#c)"/><path d="m113.69 15.89c0.61-1.13-0.41-2.15-1.54-1.54-2.69 1.45-6.93 3.84-12.18 7.13l6.59 6.59c3.29-5.25 5.67-9.49 7.13-12.18z" fill="#795548"/><path d="m18.46 108.15c-0.56 1.04 0.38 1.99 1.43 1.43 2.43-1.31 6.21-3.44 10.9-6.37l-5.96-5.96c-2.93 4.69-5.06 8.48-6.37 10.9z" fill="#795548"/><defs><path id="b" d="m56.39 55.94c22.76-22.76 47.16-36.95 55.76-41.59 1.13-0.61 2.15 0.41 1.54 1.54-4.64 8.6-18.83 32.99-41.59 55.76s-47.16 36.95-55.76 41.59c-1.13 0.61-2.15-0.41-1.54-1.54"/></defs><clipPath id="a"><use xlink:href="#b"/></clipPath><rect transform="matrix(.7071 -.7071 .7071 .7071 10.648 79.507)" x="98.52" y="14.3" width="5.55" height="25.19" clip-path="url(#a)" fill="#FFA726"/><rect transform="matrix(.7071 -.7071 .7071 .7071 -61.02 49.814)" x="27.05" y="86.9" width="5.14" height="23.32" clip-path="url(#a)" fill="#FFA726"/><g opacity=".2"><path d="m120.61 7.43c-0.02 0.1-0.07 0.24-0.15 0.41-6.76 14.12-21.79 41.5-46.48 66.19-24.69 24.68-52.07 39.71-66.19 46.47-0.17 0.08-0.31 0.12-0.41 0.15 0.02-0.1 0.07-0.24 0.15-0.41 6.76-14.12 21.79-41.5 46.48-66.19s52.07-39.72 66.19-46.48c0.17-0.08 0.31-0.12 0.41-0.14m0.18-3.03c-0.58 0-1.22 0.14-1.89 0.46-13.33 6.38-41.67 21.71-67.02 47.06s-40.68 53.69-47.06 67.02c-1.23 2.57 0.14 4.72 2.37 4.72 0.58 0 1.22-0.14 1.89-0.46 13.33-6.38 41.67-21.71 67.02-47.06s40.68-53.69 47.06-67.02c1.24-2.57-0.13-4.72-2.37-4.72z" fill="#424242"/></g><g opacity=".2"><path d="m110.49 17.54c-5.92 10.55-19.33 32.21-39.81 52.69s-42.14 33.9-52.69 39.81c5.92-10.54 19.33-32.21 39.81-52.69s42.15-33.89 52.69-39.81m2.33-3.37c-0.21 0-0.44 0.06-0.67 0.18-8.6 4.64-32.99 18.83-55.76 41.59s-36.95 47.16-41.59 55.76c-0.48 0.9 0.06 1.72 0.87 1.72 0.21 0 0.44-0.06 0.67-0.18 8.6-4.64 32.99-18.83 55.76-41.59 22.76-22.76 36.95-47.16 41.59-55.76 0.48-0.9-0.06-1.72-0.87-1.72z" fill="#424242"/></g><rect transform="matrix(.7071 -.7071 .7071 .7071 -26.543 64.023)" x="62.01" y="7.69" width="4" height="112.73" fill="#FFA726"/><path d="m16.02 5.17 11.68 11.68c3.01 3.01 3.01 7.88 0 10.89s-7.88 3.01-10.89 0l-11.68-11.68c-0.65-0.65-0.65-1.7 0-2.35l8.54-8.54c0.65-0.64 1.7-0.64 2.35 0z" fill="#F57F17"/><path d="m111.89 122.83-11.68-11.68c-3.01-3.01-3.01-7.88 0-10.89s7.88-3.01 10.89 0l11.68 11.68c0.65 0.65 0.65 1.7 0 2.35l-8.54 8.54c-0.65 0.64-1.7 0.64-2.35 0z" fill="#F57F17"/><g opacity=".2"><path d="m14.85 6.83 11.44 11.44c1.08 1.08 1.67 2.51 1.67 4.03s-0.59 2.95-1.67 4.03-2.51 1.67-4.03 1.67-2.95-0.59-4.03-1.67l-11.44-11.44 8.06-8.06m0-2.14c-0.42 0-0.85 0.16-1.17 0.49l-8.54 8.54c-0.65 0.65-0.65 1.7 0 2.35l11.68 11.68c1.5 1.5 3.47 2.26 5.45 2.26 1.97 0 3.94-0.75 5.45-2.26 3.01-3.01 3.01-7.88 0-10.89l-11.7-11.69c-0.32-0.32-0.75-0.48-1.17-0.48z" fill="#424242"/></g><g opacity=".2"><path d="m105.66 100c1.52 0 2.95 0.59 4.03 1.67l11.44 11.44-8.06 8.06-11.44-11.44c-2.22-2.22-2.22-5.84 0-8.06 1.08-1.08 2.51-1.67 4.03-1.67m0-2c-1.97 0-3.94 0.75-5.45 2.26-3.01 3.01-3.01 7.88 0 10.89l11.68 11.68c0.32 0.32 0.75 0.49 1.17 0.49s0.85-0.16 1.17-0.49l8.54-8.54c0.65-0.65 0.65-1.7 0-2.35l-11.68-11.68c-1.49-1.51-3.46-2.26-5.43-2.26z" fill="#424242"/></g></svg>

<svg width="128" height="128" style="enable-background:new 0 0 128 128;" xmlns="http://www.w3.org/2000/svg" xmlns:xlink="http://www.w3.org/1999/xlink">
  <g>
    <path d="M76.1,76.14c-25.35,25.35-53.69,40.68-67.02,47.06c-3.24,1.55-5.81-1.02-4.26-4.26 c6.38-13.33,21.71-41.67,47.06-67.02s53.69-40.68,67.02-47.06c3.24-1.55,5.81,1.02,4.26,4.26C116.79,22.46,101.45,50.79,76.1,76.14 z" style="fill:#FFA726;"/>
    <radialGradient id="SVGID_1_" cx="64.2416" cy="63.7925" gradientTransform="matrix(0.729 -0.6846 0.1644 0.1751 6.9247 96.6016)" gradientUnits="userSpaceOnUse" r="66.5075">
      <stop offset="8.769133e-04" style="stop-color:#8D6E63"/>
      <stop offset="1" style="stop-color:#6D4C41"/>
    </radialGradient>
    <path d="M72.09,71.65c-22.76,22.76-47.16,36.95-55.76,41.59c-1.13,0.61-2.15-0.41-1.54-1.54 c4.64-8.6,18.83-32.99,41.59-55.76s47.16-36.95,55.76-41.59c1.13-0.61,2.15,0.41,1.54,1.54C109.04,24.49,94.86,48.88,72.09,71.65z" style="fill:url(#SVGID_1_);"/>
    <path d="M113.69,15.89c0.61-1.13-0.41-2.15-1.54-1.54c-2.69,1.45-6.93,3.84-12.18,7.13l6.59,6.59 C109.85,22.82,112.23,18.58,113.69,15.89z" style="fill:#795548;"/>
    <path d="M18.46,108.15c-0.56,1.04,0.38,1.99,1.43,1.43c2.43-1.31,6.21-3.44,10.9-6.37l-5.96-5.96 C21.9,101.94,19.77,105.73,18.46,108.15z" style="fill:#795548;"/>
    <g>
      <defs>
        <path id="SVGID_2_" d="M56.39,55.94c22.76-22.76,47.16-36.95,55.76-41.59c1.13-0.61,2.15,0.41,1.54,1.54 c-4.64,8.6-18.83,32.99-41.59,55.76s-47.16,36.95-55.76,41.59c-1.13,0.61-2.15-0.41-1.54-1.54"/>
      </defs>
      <clipPath id="SVGID_3_">
        <use style="overflow:visible;" xlink:href="#SVGID_2_"/>
      </clipPath>
      <rect height="25.19" style="clip-path:url(#SVGID_3_);fill:#FFA726;" transform="matrix(0.7071 -0.7071 0.7071 0.7071 10.6476 79.5068)" width="5.55" x="98.52" y="14.3"/>
      <rect height="23.32" style="clip-path:url(#SVGID_3_);fill:#FFA726;" transform="matrix(0.7071 -0.7071 0.7071 0.7071 -61.0204 49.8138)" width="5.14" x="27.05" y="86.9"/>
    </g>
    <g style="opacity:0.2;">
      <path d="M120.61,7.43c-0.02,0.1-0.07,0.24-0.15,0.41c-6.76,14.12-21.79,41.5-46.48,66.19 C49.29,98.71,21.91,113.74,7.79,120.5c-0.17,0.08-0.31,0.12-0.41,0.15c0.02-0.1,0.07-0.24,0.15-0.41 c6.76-14.12,21.79-41.5,46.48-66.19C78.7,29.36,106.08,14.33,120.2,7.57C120.37,7.49,120.51,7.45,120.61,7.43 M120.79,4.4 c-0.58,0-1.22,0.14-1.89,0.46c-13.33,6.38-41.67,21.71-67.02,47.06s-40.68,53.69-47.06,67.02c-1.23,2.57,0.14,4.72,2.37,4.72 c0.58,0,1.22-0.14,1.89-0.46c13.33-6.38,41.67-21.71,67.02-47.06s40.68-53.69,47.06-67.02C124.4,6.55,123.03,4.4,120.79,4.4 L120.79,4.4z" style="fill:#424242;"/>
    </g>
    <g style="opacity:0.2;">
      <path d="M110.49,17.54c-5.92,10.55-19.33,32.21-39.81,52.69c-20.48,20.48-42.14,33.9-52.69,39.81 C23.91,99.5,37.32,77.83,57.8,57.35C78.28,36.87,99.95,23.46,110.49,17.54 M112.82,14.17c-0.21,0-0.44,0.06-0.67,0.18 c-8.6,4.64-32.99,18.83-55.76,41.59S19.44,103.1,14.8,111.7c-0.48,0.9,0.06,1.72,0.87,1.72c0.21,0,0.44-0.06,0.67-0.18 c8.6-4.64,32.99-18.83,55.76-41.59c22.76-22.76,36.95-47.16,41.59-55.76C114.17,14.99,113.63,14.17,112.82,14.17L112.82,14.17z" style="fill:#424242;"/>
    </g>
    <rect height="112.73" style="fill:#FFA726;" transform="matrix(0.7071 -0.7071 0.7071 0.7071 -26.5434 64.0226)" width="4" x="62.01" y="7.69"/>
    <path d="M16.02,5.17L27.7,16.85c3.01,3.01,3.01,7.88,0,10.89l0,0c-3.01,3.01-7.88,3.01-10.89,0L5.13,16.06 c-0.65-0.65-0.65-1.7,0-2.35l8.54-8.54C14.32,4.53,15.37,4.53,16.02,5.17z" style="fill:#F57F17;"/>
    <path d="M111.89,122.83l-11.68-11.68c-3.01-3.01-3.01-7.88,0-10.89l0,0c3.01-3.01,7.88-3.01,10.89,0 l11.68,11.68c0.65,0.65,0.65,1.7,0,2.35l-8.54,8.54C113.59,123.47,112.54,123.47,111.89,122.83z" style="fill:#F57F17;"/>
    <g style="opacity:0.2;">
      <path d="M14.85,6.83l11.44,11.44c1.08,1.08,1.67,2.51,1.67,4.03c0,1.52-0.59,2.95-1.67,4.03 C25.21,27.41,23.78,28,22.26,28c-1.52,0-2.95-0.59-4.03-1.67L6.79,14.89L14.85,6.83 M14.85,4.69c-0.42,0-0.85,0.16-1.17,0.49 l-8.54,8.54c-0.65,0.65-0.65,1.7,0,2.35l11.68,11.68c1.5,1.5,3.47,2.26,5.45,2.26c1.97,0,3.94-0.75,5.45-2.26v0 c3.01-3.01,3.01-7.88,0-10.89L16.02,5.17C15.7,4.85,15.27,4.69,14.85,4.69L14.85,4.69z" style="fill:#424242;"/>
    </g>
    <g style="opacity:0.2;">
      <path d="M105.66,100c1.52,0,2.95,0.59,4.03,1.67l11.44,11.44l-8.06,8.06l-11.44-11.44 c-2.22-2.22-2.22-5.84,0-8.06C102.71,100.59,104.14,100,105.66,100 M105.66,98c-1.97,0-3.94,0.75-5.45,2.26l0,0 c-3.01,3.01-3.01,7.88,0,10.89l11.68,11.68c0.32,0.32,0.75,0.49,1.17,0.49s0.85-0.16,1.17-0.49l8.54-8.54 c0.65-0.65,0.65-1.7,0-2.35l-11.68-11.68C109.6,98.75,107.63,98,105.66,98L105.66,98z" style="fill:#424242;"/>
    </g>
  </g>
</svg>
